icon-themes/sifr_svg/svx/res/sh04.svg

<svg viewBox="0 0 16 16" xmlns="http://www.w3.org/2000/svg"><g fill="#555753"><path d="m2 14h12v-12h-12zm2-2v-8h8v8z"/><path d="m2 2h12v12l2-2v-12h-2-10z" opacity=".35"/></g></svg>

<svg xmlns="http://www.w3.org/2000/svg" viewBox="0 0 16 16">
  <path
     style="fill:#555753"
     d="M 2,14 H 14 V 2 H 2 Z M 4,12 V 4 h 8 v 8 z"
     id="rect823" />
  <path
     style="opacity:0.35;fill:#555753"
     d="m 2,2 h 12 v 12 l 2,-2 V 0 H 14 4 Z"
     />
</svg>
